dist/svg/deploy.svg

<!-- Generated by Trend Micro Style Portal -->
<svg version="1.1" xmlns="http://www.w3.org/2000/svg" width="16" height="16" viewBox="0 0 16 16">
  <title>deploy</title>
  <path fill="rgb(34,34,34)" d="M1 2v3h14v-3h-14zM5 4h-3v-1h3v1zM1 9h14v-3h-14v3zM2 7h3v1h-3v-1zM10 10l5 5h-14v-2h9v-3z"></path>
</svg>

<svg width="16" height="16" viewBox="0 0 16 16" fill="rgb(34, 34, 34)" xmlns="http://www.w3.org/2000/svg"><title>deploy</title><path d="M1 2V5H15V2H1ZM5 4H2V3H5V4ZM1 9H15V6H1V9ZM2 7H5V8H2V7ZM10 10L15 15H1V13H10V10Z" fill="rgb(34, 34, 34)" fill-opacity="1.00"/></svg>
